!!!SOCIAL_FUNCTION:	songs with hunting dance
!!!PDT:	1956
!!!OTL: No_60_Calusa_Hunting_Dance_Song_(d).krn
!!!LANG: Non-Tone
!!!LING_GROUP: Muskogean
!!!REG: Florida
**kern
*staff1
=1-
*clefF4
*k[b-e-a-]
*M3/4
2r
4c\
=2
2c\
12c\L
12B-\
12G\J
=3
4.G\
8B-\
12G\L
12F\
12E-\J
=4
4.F\
8F\
8.F/L
16C/Jk
=5
2E-\
12F\L
12E-\
12C\J
=6
4.F\
8F\
4C/
=7||
*M2/4
4C/
12F/L
12C/
12C/J
=8||
*M3/4
4C/
4r
8F/L
8C/J
=9||
*M2/4
2C/
=10
8G\L
8G\J
4G\
=11
2G\
=12||
*M3/4
8G\L
8F\J
8E-/L
8C/J
4C/
=13||
*M2/4
4.C/
8G\
=14
12G\L
12F\
12E-\J
4F\
=15
8F\L
8F\J
8C/L
8E-/J
=16
4C/
12E-\L
12E-\
12C\J
=17||
*M3/4
4.F\
8F\
4C/
=18||
*M2/4
4C/
12F\L
12F\
12C\J
=19||
*M3/4
4C/
4r
8F/L
8C/J
=20
2C/
4r
==
*-
